X: 1
T: North Brig O' Edinburgh, The
M: 4/4
L: 1/8
R: strathspey
K: Bmin
B>A|B2 B>F B>B d2|c>BA>c e>cB>c|B2 B>F B>B d2|d>B c<A B2:|
B>c|d2 d>f d>df>d|c>BA>c e>cB>c|d2 d>f d>d d2|d>B c<A B2 B>c|
d2 d>f d>df>d|c>BA>c e>cB>c|d2 d>B A>ce>c|d>B c<A B2||
